P2
28 28
255
1 1 1 1 1 1 1 1 2 1 1 2 1 1 1 1 1 1 2 1 2 1 1 1 1 1 1 1
2 1 1 1 1 1 1 1 1 1 1 1 1 1 1 1 1 1 1 1 1 1 1 1 1 1 1 1
1 1 1 1 1 1 1 1 1 1 1 1 1 1 1 2 1 1 1 1 1 1 1 1 1 1 1 1
1 1 1 1 1 1 1 1 1 1 1 1 1 1 1 1 1 1 1 1 1 1 1 2 1 1 1 1
1 1 1 1 1 1 1 1 1 1 1 1 1 1 3 23 40 89 39 26 22 19 1 1 1 1 5 1
2 1 1 1 1 1 1 1 1 1 1 1 2 22 166 224 219 214 243 243 212 145 10 2 6 1 1 1
2 41 1 1 1 1 1 1 1 1 1 1 97 244 247 247 244 246 249 249 251 239 148 87 5 1 1 1
1 1 1 1 1 1 1 1 1 1 2 40 247 254 251 246 244 245 248 252 254 254 242 136 3 1 1 1
1 1 1 1 1 1 1 1 1 2 30 229 254 254 180 155 190 211 211 227 253 255 249 129 2 1 1 1
1 1 1 1 1 1 1 1 2 82 245 253 254 218 12 6 27 30 52 180 253 255 251 168 5 1 1 1
1 1 1 1 1 1 1 1 90 246 254 253 226 31 1 1 2 11 76 207 250 254 248 121 2 1 1 1
1 1 1 1 1 1 1 36 239 253 253 243 43 2 1 1 2 17 134 236 248 246 243 211 10 1 1 1
1 1 1 1 1 8 97 230 253 254 233 62 2 1 1 1 1 12 170 225 246 235 247 110 11 1 1 1
1 1 1 1 6 102 228 252 254 247 121 11 1 1 1 1 1 6 122 243 248 251 246 100 10 1 1 1
1 1 1 1 11 200 253 254 254 181 12 6 1 1 1 1 1 3 113 244 247 248 243 92 10 1 1 1
1 1 1 1 33 206 251 254 244 103 19 6 1 1 1 1 1 12 217 249 250 252 234 72 12 1 1 1
1 1 1 1 125 244 251 247 209 16 6 1 1 1 1 1 8 184 248 253 254 254 181 68 12 1 1 1
1 1 1 1 132 246 254 247 89 8 1 1 1 1 6 96 213 250 251 252 250 244 53 12 6 1 1 1
1 1 1 1 35 246 253 247 169 23 7 6 26 158 242 254 254 254 250 234 170 30 2 4 1 1 1 1
2 1 1 1 21 245 251 251 247 237 231 223 244 254 255 255 254 246 214 30 8 1 1 1 1 1 1 1
1 1 16 1 9 212 252 254 254 254 252 254 255 255 251 246 218 104 51 7 1 1 1 1 1 1 1 1
1 1 1 2 3 47 159 248 252 250 253 251 248 243 129 31 11 9 8 1 1 1 1 1 1 1 1 1
1 1 1 2 1 1 9 89 158 198 172 169 60 13 5 2 1 1 1 1 1 2 1 1 1 1 2 1
1 1 1 1 1 1 1 7 5 2 5 1 1 1 1 1 1 1 1 1 1 2 1 1 1 1 1 1
1 1 1 1 1 1 1 1 1 1 1 1 1 1 1 1 1 1 6 1 1 1 1 1 1 1 1 1
1 1 1 1 1 1 1 1 1 1 1 1 1 1 1 1 1 1 1 1 1 1 1 1 1 1 1 1
1 2 1 1 1 1 1 1 1 1 1 1 1 1 1 1 1 1 1 1 1 1 1 1 1 1 1 1
1 1 1 1 1 1 1 1 1 1 1 1 1 1 1 1 1 1 1 1 1 1 1 1 1 1 1 1
