P2
28 28
255
1 1 1 1 1 1 1 1 1 1 2 3 4 5 5 4 3 2 1 1 1 1 1 1 1 1 1 1
1 1 1 1 1 1 1 1 1 3 6 11 17 21 21 17 11 6 3 1 1 1 1 1 1 1 1 1
1 1 1 1 1 1 1 1 3 9 22 40 59 70 70 59 40 22 9 3 1 1 1 1 1 1 1 1
1 1 1 1 1 1 1 3 11 32 67 107 141 159 159 141 107 67 32 11 3 1 1 1 1 1 1 1
1 1 1 1 1 1 2 9 33 82 145 198 229 241 241 229 198 145 82 33 9 2 1 1 1 1 1 1
1 1 1 1 1 1 6 25 78 157 225 253 252 244 244 252 253 225 157 78 25 6 1 1 1 1 1 1
1 1 1 1 1 3 14 57 142 227 255 228 188 164 164 188 228 255 227 142 57 14 3 1 1 1 1 1
1 1 1 1 1 5 30 103 207 255 217 147 97 74 74 97 147 217 255 207 103 30 5 1 1 1 1 1
1 1 1 1 2 11 55 156 247 231 144 71 35 23 23 35 71 144 231 247 156 55 11 2 1 1 1 1
1 1 1 1 3 19 85 202 254 179 80 27 10 5 5 10 27 80 179 254 202 85 19 3 1 1 1 1
1 1 1 1 4 29 116 233 236 126 40 9 3 2 2 3 9 40 126 236 233 116 29 4 1 1 1 1
1 1 1 1 6 39 143 249 209 88 20 4 1 1 1 1 4 20 88 209 249 143 39 6 1 1 1 1
1 1 1 1 7 48 162 254 186 65 12 2 1 1 1 1 2 12 65 186 254 162 48 7 1 1 1 1
1 1 1 1 8 53 171 255 174 55 9 2 1 1 1 1 2 9 55 174 255 171 53 8 1 1 1 1
1 1 1 1 8 53 171 255 174 55 9 2 1 1 1 1 2 9 55 174 255 171 53 8 1 1 1 1
1 1 1 1 7 48 162 254 186 65 12 2 1 1 1 1 2 12 65 186 254 162 48 7 1 1 1 1
1 1 1 1 6 39 143 249 209 88 20 4 1 1 1 1 4 20 88 209 249 143 39 6 1 1 1 1
1 1 1 1 4 29 116 233 236 126 40 9 3 2 2 3 9 40 126 236 233 116 29 4 1 1 1 1
1 1 1 1 3 19 85 202 254 179 80 27 10 5 5 10 27 80 179 254 202 85 19 3 1 1 1 1
1 1 1 1 2 11 55 156 247 231 144 71 35 23 23 35 71 144 231 247 156 55 11 2 1 1 1 1
1 1 1 1 1 5 30 103 207 255 217 147 97 74 74 97 147 217 255 207 103 30 5 1 1 1 1 1
1 1 1 1 1 3 14 57 142 227 255 228 188 164 164 188 228 255 227 142 57 14 3 1 1 1 1 1
1 1 1 1 1 1 6 25 78 157 225 253 252 244 244 252 253 225 157 78 25 6 1 1 1 1 1 1
1 1 1 1 1 1 2 9 33 82 145 198 229 241 241 229 198 145 82 33 9 2 1 1 1 1 1 1
1 1 1 1 1 1 1 3 11 32 67 107 141 159 159 141 107 67 32 11 3 1 1 1 1 1 1 1
1 1 1 1 1 1 1 1 3 9 22 40 59 70 70 59 40 22 9 3 1 1 1 1 1 1 1 1
1 1 1 1 1 1 1 1 1 3 6 11 17 21 21 17 11 6 3 1 1 1 1 1 1 1 1 1
1 1 1 1 1 1 1 1 1 1 2 3 4 5 5 4 3 2 1 1 1 1 1 1 1 1 1 1
